src/assets/filled/KeySquare.svg

<?xml version="1.0" encoding="UTF-8"?>
<svg width="24" height="24" viewBox="0 0 24 24" xmlns="http://www.w3.org/2000/svg">
 <path d="m13.25 12c0.6904 0 1.25-0.5596 1.25-1.25s-0.5596-1.25-1.25-1.25-1.25 0.5596-1.25 1.25 0.5596 1.25 1.25 1.25z"/>
 <path d="m16.19 2h-8.38c-3.64 0-5.81 2.17-5.81 5.81v8.37c0 3.65 2.17 5.82 5.81 5.82h8.37c3.64 0 5.81-2.17 5.81-5.81v-8.38c0.01-3.64-2.16-5.81-5.8-5.81zm-0.3 11.47c-1.03 1.02-2.5 1.34-3.8 0.93l-1.06 1.05c-0.09 0.09-0.25 0.09-0.35 0l-0.97-0.97c-0.14-0.14-0.38-0.14-0.53 0s-0.14 0.38 0 0.53l0.97 0.97c0.1 0.1 0.1 0.26 0 0.35l-0.41 0.41c-0.17 0.18-0.5 0.29-0.74 0.26l-1.09-0.15c-0.36-0.05-0.69-0.39-0.75-0.75l-0.15-1.09c-0.04-0.24 0.08-0.57 0.24-0.74l2.35-2.35c-0.4-1.3-0.09-2.77 0.94-3.8 1.47-1.47 3.87-1.47 5.35 0s1.48 3.87 0 5.35z"/>
</svg>

<svg width="24" height="24" viewBox="0 0 24 24"  xmlns="http://www.w3.org/2000/svg">
<path d="M13.25 12C13.9404 12 14.5 11.4404 14.5 10.75C14.5 10.0596 13.9404 9.5 13.25 9.5C12.5596 9.5 12 10.0596 12 10.75C12 11.4404 12.5596 12 13.25 12Z" />
<path d="M16.19 2H7.81C4.17 2 2 4.17 2 7.81V16.18C2 19.83 4.17 22 7.81 22H16.18C19.82 22 21.99 19.83 21.99 16.19V7.81C22 4.17 19.83 2 16.19 2ZM15.89 13.47C14.86 14.49 13.39 14.81 12.09 14.4L11.03 15.45C10.94 15.54 10.78 15.54 10.68 15.45L9.71 14.48C9.57 14.34 9.33 14.34 9.18 14.48C9.03 14.62 9.04 14.86 9.18 15.01L10.15 15.98C10.25 16.08 10.25 16.24 10.15 16.33L9.74 16.74C9.57 16.92 9.24 17.03 9 17L7.91 16.85C7.55 16.8 7.22 16.46 7.16 16.1L7.01 15.01C6.97 14.77 7.09 14.44 7.25 14.27L9.6 11.92C9.2 10.62 9.51 9.15 10.54 8.12C12.01 6.65 14.41 6.65 15.89 8.12C17.37 9.59 17.37 11.99 15.89 13.47Z" />
</svg>
